X:14
T:The White Cockade
N:page 14 on manuscript
M:2/4
L:1/8
K:F
(F/G/) | AA A(G/F/) | AAA e/d/ | cA AG/F/ | EG G(F/G/) | AA A(G/F/) | GA f(e/f/) | (a/g/)f/e/ (g/f/)e/d/ | ecc :||
G/A/ | cAfA | cA AB/c/ | cAfA | gG G(F/G/) | AA A(G/F/) | GA f(e/f/) | (a/g/)fe (d/e/)fd | cAA :||

